X: 245
T: Ormond Sound
C:Paddy O'Brien - Tipperary
M:4/4
L:1/8
K:G
"Am"A2ed "G"BedB|AG~G2 "Em"AGEG|"Am"A2ed "D"(3B^cd ef|"G"gfga gedg|
"Am"eA~A2 "G"BedB|"Am"AGEF "G"G2AG|"Am"EA~A2 "G"GABd|1gedB "Am"A3G:|2gedB "Am"ABcd||
"Am"efge "D"agfg|"Am"e2ag "G"edBd|"Am"egfa "G"~g3e|"(Dsus2)"d2ge "G"dBGB|
"Am"c3A "G"d3B|"Em"efge "D"a2ga|"G"bg~g2 "D"agab|1"G"gedB "Am"ABcd;|2 "G"gedB "Am"A3G|]


